assets/img/braze_icons/book-open-02.svg

<svg fill="none" height="24" viewBox="0 0 24 24" width="24" xmlns="http://www.w3.org/2000/svg"><path d="m5.64281 3h-.48135c-.52713-.00002-.98192-.00003-1.35649.03057-.39534.0323-.78856.10362-1.16694.29641-.56449.28762-1.02343.74656-1.31105 1.31105-.19279.37838-.26411.7716-.29641 1.16694-.030601.37457-.030586.82931-.03057 1.35645v9.67708c-.000016.5272-.000031.982.03057 1.3565.0323.3954.10362.7886.29641 1.167.28762.5645.74656 1.0234 1.31105 1.311.37838.1928.7716.2641 1.16694.2964.37457.0306.82933.0306 1.35647.0306h13.67716c.5271 0 .9819 0 1.3564-.0306.3954-.0323.7886-.1036 1.167-.2964.5645-.2876 1.0234-.7465 1.311-1.311.1928-.3784.2641-.7716.2964-1.167.0306-.3745.0306-.8293.0306-1.3564v-9.67714c0-.52714 0-.98192-.0306-1.35649-.0323-.39534-.1036-.78856-.2964-1.16694-.2876-.56449-.7465-1.02343-1.311-1.31105-.3784-.19279-.7716-.26411-1.167-.29641-.3745-.0306-.8293-.03059-1.3564-.03057h-.4814c-1.0838-.00001-1.958-.00001-2.6658.05782-.7289.05955-1.3691.18536-1.9614.48715-.6835.34829-1.2742.84731-1.73 1.45502-.4558-.60771-1.0465-1.10673-1.73-1.45502-.59234-.30179-1.23252-.4276-1.96137-.48715-.70787-.05783-1.58206-.05783-2.66582-.05782z" fill="#801ed7"/></svg>

<svg width="24" height="24" viewBox="0 0 24 24" fill="none" xmlns="http://www.w3.org/2000/svg">
<path d="M5.64281 3H5.16146C4.63433 2.99998 4.17954 2.99997 3.80497 3.03057C3.40963 3.06287 3.01641 3.13419 2.63803 3.32698C2.07354 3.6146 1.6146 4.07354 1.32698 4.63803C1.13419 5.01641 1.06287 5.40963 1.03057 5.80497C0.999969 6.17954 0.999984 6.63428 1 7.16142V16.8385C0.999984 17.3657 0.999969 17.8205 1.03057 18.195C1.06287 18.5904 1.13419 18.9836 1.32698 19.362C1.6146 19.9265 2.07354 20.3854 2.63803 20.673C3.01641 20.8658 3.40963 20.9371 3.80497 20.9694C4.17954 21 4.6343 21 5.16144 21H18.8386C19.3657 21 19.8205 21 20.195 20.9694C20.5904 20.9371 20.9836 20.8658 21.362 20.673C21.9265 20.3854 22.3854 19.9265 22.673 19.362C22.8658 18.9836 22.9371 18.5904 22.9694 18.195C23 17.8205 23 17.3657 23 16.8386V7.16146C23 6.63432 23 6.17954 22.9694 5.80497C22.9371 5.40963 22.8658 5.01641 22.673 4.63803C22.3854 4.07354 21.9265 3.6146 21.362 3.32698C20.9836 3.13419 20.5904 3.06287 20.195 3.03057C19.8205 2.99997 19.3657 2.99998 18.8386 3H18.3572C17.2734 2.99999 16.3992 2.99999 15.6914 3.05782C14.9625 3.11737 14.3223 3.24318 13.73 3.54497C13.0465 3.89326 12.4558 4.39228 12 4.99999C11.5442 4.39228 10.9535 3.89326 10.27 3.54497C9.67766 3.24318 9.03748 3.11737 8.30863 3.05782C7.60076 2.99999 6.72657 2.99999 5.64281 3Z" fill="#801ED7"/>
</svg>
